X:1
T: The Girl in Green
C:
R:Jig
Q:180
K:G
M:6/8
L:1/16
|:d2e2d2 B2G2B2|c4B2 A4G2|D2G2G2 G2F2G2|A2B2A2 A2B2c2|
d2e2d2 B2G2B2|c4B2 A4G2|D2G2G2 G2F2G2|D2G2G2 G6|
d2e2d2 B2d2g2|e2c2c2 c6|e2f2e2 ^c2e2a2|f2d2d2 d6|
g2f2e2 d2c2B2|e2d2c2 B2A2G2|D2G2G2 E2G2G2|D2G2G2 G6:|
